!!! OTL: Berkowitz66
!!! Chapter: 1
!!! Section: I
!!! Page: 18
!!! Mode: 
!!! Encoder: DJB
**kern
*staff1
*I"Piano
=1-
*clefF4
*k[b-e-a-d-]
*f:
*M2/4
8F\L
8C\J
8D-/L
8C/J
=2
8F\L
8A-\J
4c\
=3
8d-\L
8c\J
8A-\L
8F\J
=4
4A-\
4G\
=5
8F\L
8C\J
8D-/L
8C/J
=6
8F\L
8A-\J
8c\L
8F\J
=7
4A-\
4G\
=8
2F\
==
*-
